X: 182
T: Hajde Merre Furken
O: Albania
F: http://www.youtube.com/watch?v=noPYo0We5f0
M: 7/8
L: 1/8
K: C
Q: 1/4=108
%%MIDI program 110 % fiddle
%%MIDI drum dd2ddd2 37 37 37 37 38 80 80 60 50 50
%%MIDI drumon
Z|G3-G2E2|D3 C4|G3 G2A2|_B/A/B/A/z G2E2|D/C/D/z E2D2|D3 C4|
_B,3 D2E2|G3 E2D2|C7-|C7|_B3 AGE2|DCD C4|



